common/app/assets/images/global/minus-white-mask.svg

<svg xmlns="http://www.w3.org/2000/svg" width="32" height="32"><path d="M16 0h-16v16c0-8.836 7.163-16 16-16zm-16 16v16h16c-8.837 0-16-7.163-16-16zm16 16h16v-16c0 8.837-7.163 16-16 16zm0-31c-8.271 0-15 6.729-15 15s6.729 15 15 15 15-6.729 15-15-6.729-15-15-15zm10 15.625l-8.335 1.042-1.615.039h-.004l-1.714-.039-8.332-1.042v-1.25l8.332-1.042 1.616-.087-.044-.048 1.761.135 8.335 1.042zm-10-16.625c8.837 0 16 7.164 16 16v-16z" fill="#fff"/></svg>

<svg xmlns="http://www.w3.org/2000/svg" width="32" height="32"><path d="M16 0H0v16C0 7.164 7.163 0 16 0zM0 16v16h16C7.163 32 0 24.837 0 16zm16 16h16V16c0 8.837-7.163 16-16 16zm0-31C7.73 1 1 7.73 1 16s6.73 15 15 15 15-6.73 15-15S24.27 1 16 1zm10 15.625l-8.335 1.042-1.615.04h-.004l-1.714-.04L6 16.625v-1.25l8.332-1.042 1.616-.087-.044-.048 1.76.135L26 15.375zM16 0c8.837 0 16 7.164 16 16V0z" fill="#fff"/></svg>
